src/pos-icons/expansion-card.svg

<svg height="24" viewBox="0 0 24 24" width="24" xmlns="http://www.w3.org/2000/svg"><path d="m2 7v1.5h1v8.5h1.5v-10c-.8 0-1.7 0-2.5 0m4 0v9h1v1h7v-1h8v-9zm11.5 2a2.5 2.5 0 0 1 2.5 2.5 2.5 2.5 0 0 1 -2.5 2.5 2.5 2.5 0 0 1 -2.5-2.5 2.5 2.5 0 0 1 2.5-2.5z"/></svg>

<?xml version="1.0" encoding="UTF-8"?><!DOCTYPE svg PUBLIC "-//W3C//DTD SVG 1.1//EN" "http://www.w3.org/Graphics/SVG/1.1/DTD/svg11.dtd"><svg xmlns="http://www.w3.org/2000/svg" xmlns:xlink="http://www.w3.org/1999/xlink" version="1.1" id="mdi-expansion-card" width="24" height="24" viewBox="0 0 24 24"><path d="M2,7V8.5H3V17H4.5V7C3.7,7 2.8,7 2,7M6,7V7L6,16H7V17H14V16H22V7H6M17.5,9A2.5,2.5 0 0,1 20,11.5A2.5,2.5 0 0,1 17.5,14A2.5,2.5 0 0,1 15,11.5A2.5,2.5 0 0,1 17.5,9Z" /></svg>
